icons/chevron-square-topB.svg

<svg width="24" height="24" viewBox="0 0 24 24" fill="none" xmlns="http://www.w3.org/2000/svg">
<path d="M9 3H15C18.3 3 21 5.7 21 9V15C21 18.3 18.3 21 15 21H9C5.7 21 3 18.3 3 15V9C3 5.6 5.6 3 9 3Z" fill="black"/>
<path fill-rule="evenodd" clip-rule="evenodd" d="M9 3.75C6.01421 3.75 3.75 6.01421 3.75 9V15C3.75 17.8858 6.11421 20.25 9 20.25H15C17.8858 20.25 20.25 17.8858 20.25 15V9C20.25 6.11421 17.8858 3.75 15 3.75H9ZM2.25 9C2.25 5.18579 5.18579 2.25 9 2.25H15C18.7142 2.25 21.75 5.28579 21.75 9V15C21.75 18.7142 18.7142 21.75 15 21.75H9C5.28579 21.75 2.25 18.7142 2.25 15V9Z" fill="black"/>
<path fill-rule="evenodd" clip-rule="evenodd" d="M11.9 11.0607L8.83032 14.1303C8.53742 14.4232 8.06255 14.4232 7.76966 14.1303C7.47676 13.8374 7.47676 13.3626 7.76966 13.0697L10.9697 9.86967C11.2708 9.56858 11.6885 9.49191 12.0034 9.5144C12.3135 9.53655 12.7047 9.66761 12.971 10.0104L16.1303 13.1697C16.4232 13.4626 16.4232 13.9374 16.1303 14.2303C15.8374 14.5232 15.3626 14.5232 15.0697 14.2303L11.9 11.0607Z" fill="white"/>
</svg>

<svg xmlns="http://www.w3.org/2000/svg" fill="none" viewBox="0 0 24 24">
  <path fill="#000" d="M9 3h6c3.3 0 6 2.7 6 6v6c0 3.3-2.7 6-6 6H9c-3.3 0-6-2.7-6-6V9c0-3.4 2.6-6 6-6Z"/>
  <path fill="#000" fill-rule="evenodd" d="M9 3.75C6.014 3.75 3.75 6.014 3.75 9v6c0 2.886 2.364 5.25 5.25 5.25h6c2.886 0 5.25-2.364 5.25-5.25V9c0-2.886-2.364-5.25-5.25-5.25H9ZM2.25 9c0-3.814 2.936-6.75 6.75-6.75h6c3.714 0 6.75 3.036 6.75 6.75v6c0 3.714-3.036 6.75-6.75 6.75H9c-3.714 0-6.75-3.036-6.75-6.75V9Z" clip-rule="evenodd"/>
  <path fill="#fff" fill-rule="evenodd" d="m11.9 11.06-3.07 3.07a.75.75 0 0 1-1.06-1.06l3.2-3.2c.3-.301.718-.378 1.033-.356.31.023.702.154.968.496l3.16 3.16a.75.75 0 1 1-1.061 1.06l-3.17-3.17Z" clip-rule="evenodd"/>
</svg>
